%
(Header)
(Generated by gcodetools from Inkscape.)
(Using default header. To add your own header create file "header" in the output dir.)
M3
(Header end.)
G21 (All units in mm)

(Start cutting path id: path12546)
(Change tool to Default tool)

G00 Z5.000000
G00 X31.158550 Y5.128919

G01 Z-0.125000 F100.0(Penetrate)
G03 X36.536099 Y6.710553 Z-0.125000 I-0.071106 J10.174400 F400.000000
G03 X40.256074 Y10.798250 Z-0.125000 I-5.601954 J8.834526
G03 X46.127419 Y14.354657 Z-0.125000 I-6.725525 J17.728072
G03 X48.611386 Y18.121958 Z-0.125000 I-5.803634 J6.529173
G03 X48.979512 Y22.732722 Z-0.125000 I-9.155324 J3.051044
G03 X46.848723 Y29.364586 Z-0.125000 I-23.224122 J-3.803572
G02 X44.916138 Y34.330947 Z-0.125000 I47.721738 J21.429397
G02 X45.049466 Y39.342970 Z-0.125000 I7.001963 J2.321522
G03 X44.754490 Y41.232397 Z-0.125000 I-1.660263 J0.708540
G03 X43.663551 Y42.089598 Z-0.125000 I-2.753742 J-2.381813
G02 X39.819017 Y43.641049 Z-0.125000 I2.872867 J12.658189
G02 X36.431607 Y47.683646 Z-0.125000 I4.218897 J6.975640
G03 X34.747993 Y51.951423 Z-0.125000 I-7.435752 J-0.467385
G03 X29.811430 Y57.057168 Z-0.125000 I-34.381365 J-28.302750
G03 X24.874809 Y51.950810 Z-0.125000 I29.463419 J-33.423484
G03 X23.191255 Y47.683076 Z-0.125000 I5.752297 J-4.735126
G02 X19.803845 Y43.640479 Z-0.125000 I-7.606307 J2.933044
G02 X15.959311 Y42.089028 Z-0.125000 I-6.717401 J11.106736
G03 X14.868373 Y41.231827 Z-0.125000 I1.662804 J-3.239014
G03 X14.573397 Y39.342400 Z-0.125000 I1.365287 J-1.180887
G02 X14.706724 Y34.330378 Z-0.125000 I-6.868633 J-2.690500
G02 X12.774140 Y29.364019 Z-0.125000 I-49.654354 J16.463052
G03 X10.643351 Y22.732155 Z-0.125000 I21.093335 J-10.435436
G03 X11.011477 Y18.121392 Z-0.125000 I9.523446 J-1.559719
G03 X13.495444 Y14.354092 Z-0.125000 I8.287598 J2.761872
G03 X19.366789 Y10.797685 Z-0.125000 I12.596872 J14.171669
G03 X23.118737 Y6.694463 Z-0.125000 I9.297070 J4.734171
G03 X28.563996 Y5.128013 Z-0.125000 I5.443729 J8.675802
G00 Z5.000000

(End cutting path id: path12546)


(Footer)
M5
G00 X0.0000 Y0.0000
M2
(Using default footer. To add your own footer create file "footer" in the output dir.)
(end)
%