%
(Header)
(Generated by gcodetools from Inkscape.)
(Using default header. To add your own header create file "header" in the output dir.)
M3
(Header end.)
G21 (All units in mm)

(Start cutting path id: path10969)
(Change tool to Default tool)

G00 Z5.000000
G00 X31.184568 Y1.420087

G01 Z-0.125000 F100.0(Penetrate)
G03 X33.947635 Y4.092713 Z-0.125000 I-3.002744 J5.868955 F400.000000
G03 X35.340987 Y7.689092 Z-0.125000 I-12.389274 J6.868104
G03 X37.356765 Y8.052969 Z-0.125000 I-0.616345 J9.179750
G03 X40.683050 Y9.906569 Z-0.125000 I-2.515571 J8.425504
G03 X44.896269 Y8.701173 Z-0.125000 I4.178115 J6.637830
G03 X48.847336 Y9.301795 Z-0.125000 I-0.061313 J13.699282
G03 X50.034328 Y14.884559 Z-0.125000 I-5.072771 J3.996129
G03 X47.957486 Y21.118055 Z-0.125000 I-43.442202 J-11.011110
G03 X49.423148 Y28.083589 Z-0.125000 I-19.460388 J7.731750
G03 X48.040987 Y35.911314 Z-0.125000 I-18.931126 J0.693172
G03 X49.702741 Y40.033053 Z-0.125000 I-14.393347 J8.198789
G03 X48.343369 Y47.603376 Z-0.125000 I-9.013026 J2.288778
G03 X45.009787 Y47.625363 Z-0.125000 I-1.769158 J-15.509520
G03 X41.489399 Y46.998614 Z-0.125000 I2.366064 J-23.490144
G03 X39.635622 Y48.789793 Z-0.125000 I-7.758172 J-6.174433
G03 X37.155273 Y50.324806 Z-0.125000 I-10.389638 J-14.016647
G03 X35.656829 Y54.043962 Z-0.125000 I-5.816437 J-0.181997
G03 X30.309888 Y59.175785 Z-0.125000 I-38.651487 J-34.920243
G03 X24.962459 Y54.038134 Z-0.125000 I33.551076 J-40.272727
G03 X23.464509 Y50.319570 Z-0.125000 I4.318358 J-3.900557
G03 X20.984160 Y48.784557 Z-0.125000 I7.909285 J-15.551654
G03 X19.130383 Y46.993379 Z-0.125000 I5.904397 J-7.965613
G03 X15.609995 Y47.620128 Z-0.125000 I-5.886453 J-22.863395
G03 X12.276413 Y47.598141 Z-0.125000 I-1.564424 J-15.531506
G03 X10.917041 Y40.027818 Z-0.125000 I7.653655 J-5.281545
G03 X12.578795 Y35.906079 Z-0.125000 I16.055104 J4.077051
G03 X11.196634 Y28.078353 Z-0.125000 I17.548967 J-7.134553
G03 X12.662296 Y21.112820 Z-0.125000 I20.926053 J0.766217
G03 X10.585452 Y14.879317 Z-0.125000 I41.365379 J-17.244611
G03 X11.772447 Y9.296545 Z-0.125000 I6.259773 J-1.586637
G03 X15.723513 Y8.695923 Z-0.125000 I4.012380 J13.098657
G03 X19.936731 Y9.901319 Z-0.125000 I0.035104 J7.843226
G03 X23.263017 Y8.047739 Z-0.125000 I5.841727 J6.571757
G03 X25.278794 Y7.683871 Z-0.125000 I2.632146 J8.816234
G03 X26.673936 Y4.085009 Z-0.125000 I13.773173 J3.269481
G03 X29.442503 Y1.411141 Z-0.125000 I5.764919 J3.198849
G00 Z5.000000

(End cutting path id: path10969)


(Footer)
M5
G00 X0.0000 Y0.0000
M2
(Using default footer. To add your own footer create file "footer" in the output dir.)
(end)
%