%
(Header)
(Generated by gcodetools from Inkscape.)
(Using default header. To add your own header create file "header" in the output dir.)
M3
(Header end.)
G21 (All units in mm)

(Start cutting path id: path9781)
(Change tool to Default tool)

G00 Z5.000000
G00 X11.288889 Y11.288890

G01 Z-0.125000 F100.0(Penetrate)
G01 X29.431745 Y11.288890 Z-0.125000 F400.000000
G02 X37.159234 Y16.306338 Z-0.125000 I16.795956 J-17.408478
G02 X41.700777 Y16.836056 Z-0.125000 I3.234680 J-7.999223
G02 X46.353771 Y14.947126 Z-0.125000 I-1.642964 J-10.722425
G02 X50.800000 Y11.288890 Z-0.125000 I-24.147864 J-33.880476
G01 X74.587301 Y11.288890 Z-0.125000
G02 X80.629602 Y16.897417 Z-0.125000 I20.850499 J-16.404043
G02 X85.674899 Y18.540707 Z-0.125000 I5.409248 J-8.040914
G02 X90.686779 Y17.264741 Z-0.125000 I0.343232 J-9.132906
G02 X97.568256 Y11.288890 Z-0.125000 I-13.079635 J-22.011923
G01 X119.742857 Y11.288890 Z-0.125000
G03 X124.664643 Y15.789363 Z-0.125000 I-111.609316 J126.999183
G02 X129.697936 Y18.655464 Z-0.125000 I8.302386 J-8.727555
G02 X134.370781 Y18.296433 Z-0.125000 I1.846948 J-6.550097
G02 X143.530160 Y11.288890 Z-0.125000 I-10.737971 J-23.525094
G01 X156.431746 Y11.288890 Z-0.125000
G00 Z5.000000

(End cutting path id: path9781)


(Footer)
M5
G00 X0.0000 Y0.0000
M2
(Using default footer. To add your own footer create file "footer" in the output dir.)
(end)
%