%
(Header)
(Generated by gcodetools from Inkscape.)
(Using default header. To add your own header create file "header" in the output dir.)
M3
(Header end.)
G21 (All units in mm)

(Start cutting path id: path9329)
(Change tool to Default tool)

G00 Z5.000000
G00 X8.063492 Y16.530166

G01 Z-0.125000 F100.0(Penetrate)
G02 X14.841330 Y25.336686 Z-0.125000 I34.648141 J-19.655045 F400.000000
G02 X20.160540 Y27.793723 Z-0.125000 I6.108620 J-6.238213
G02 X25.374192 Y26.246219 Z-0.125000 I0.664376 J-7.318007
G02 X33.866667 Y16.530166 Z-0.125000 I-21.729218 J-27.562297
G01 X63.701589 Y16.530166 Z-0.125000
G02 X71.951234 Y25.323739 Z-0.125000 I36.165142 J-25.661676
G02 X78.215874 Y27.798852 Z-0.125000 I7.067972 J-8.723783
G02 X84.190083 Y26.050188 Z-0.125000 I0.638336 J-8.898762
G02 X92.730160 Y16.530166 Z-0.125000 I-19.394281 J-25.988438
G01 X118.936508 Y16.530166 Z-0.125000
G02 X130.087171 Y26.189524 Z-0.125000 I24.723255 J-17.274486
G02 X135.327550 Y26.409869 Z-0.125000 I2.863776 J-5.682960
G02 X141.261649 Y22.161102 Z-0.125000 I-5.765265 J-14.320490
G03 X147.158731 Y16.530166 Z-0.125000 I31.672621 J27.266257
G00 Z5.000000

(End cutting path id: path9329)


(Footer)
M5
G00 X0.0000 Y0.0000
M2
(Using default footer. To add your own footer create file "footer" in the output dir.)
(end)
%